X: 091
M: 6/8
L: 1/8
K: G
|: "2f"d2d |\
ded !+!c2B | c2A c2c | Bcd !+!c2B | A3 d2d |\
e2e fga | g2G c3 | BcB ABA | G3 |] [K:Gm]
[| "2f"BAG |\
d2e d2c | B2A BAG | !+!^F2G c2B | !+!A3 BAB |\
c2d edc | d2B fed | gfe d2c | B3 :|
"1f"dcd |\
e2d !+!c2d | !+!B2A Bcd | c2B !+!A2G | d3 gab |\
a2g ^fga | d3 cde | dcB !+!A2G | HG3 |]

